X:1772
T:Egan's Polka
O:england
M:2/4
L:1/8
R:Polka
K:G
BD ED|BD ED|G2 A>B|AG ED|BD ED|BD ED|G2 A>B|AG GA:|
Bd Bd/B/|AG ED|G2 A>B|AG ED|Bd Bd/B/|AG ED|G2 A>B|AG G2:|


